apps/www/public/images/logos/frameworks/flutter.svg

<svg width="62" height="61" viewBox="0 0 62 61" fill="none" xmlns="http://www.w3.org/2000/svg">
<path d="M46.5067 10.3828L34.3509 10.3962L14.75 29.9971L20.7974 36.0519L26.1125 30.7666L46.5067 10.3828Z" fill="#7E7E7E"/>
<path d="M34.6996 28.4653C34.5272 28.4573 34.3493 28.4491 34.2378 28.5965L23.7856 39.0471L29.7894 45.0142L29.7825 45.021L34.079 49.3212C34.1072 49.3462 34.1352 49.3741 34.1637 49.4026C34.2813 49.5201 34.4074 49.6462 34.5895 49.6055C36.5743 49.601 38.5591 49.6017 40.544 49.6025C42.529 49.6032 44.5142 49.604 46.4998 49.5995L35.9333 39.0234L46.4963 28.467L34.906 28.464C34.8415 28.4719 34.7711 28.4686 34.6996 28.4653Z" fill="#7E7E7E"/>
</svg>

<svg xmlns="http://www.w3.org/2000/svg" width="62" height="61" fill="none" viewBox="0 0 62 61"><path fill="#7e7e7e" d="m46.507 10.383-12.156.013L14.75 29.997l6.047 6.055 5.316-5.285zM34.7 28.465c-.173-.008-.35-.016-.462.131L23.786 39.048l6.003 5.967-.007.007 4.297 4.3q.042.038.085.082c.117.117.243.243.425.203q2.977-.006 5.955-.004 2.977.003 5.956-.002L35.933 39.023l10.563-10.556-11.59-.003c-.064.008-.135.005-.206.001"/></svg>
